icon/ir/printer.svg

<svg stroke-width="1.5" viewBox="0 0 24 24" fill="none" xmlns="http://www.w3.org/2000/svg" height="1em" width="1em">
  <path d="M3 17H21M6 10V3.6C6 3.26863 6.26863 3 6.6 3H17.4C17.7314 3 18 3.26863 18 3.6V10M21 20.4V14C21 11.7909 19.2091 10 17 10H7C4.79086 10 3 11.7909 3 14V20.4C3 20.7314 3.26863 21 3.6 21H20.4C20.7314 21 21 20.7314 21 20.4Z" stroke="currentColor" stroke-width="1.5"/>
  <path d="M17 13.01L17.01 12.9989" stroke="currentColor" stroke-linecap="round" stroke-linejoin="round"/>
</svg>

<svg width="24" height="24" stroke-width="1.5" fill="none" xmlns="http://www.w3.org/2000/svg"><path d="M3 17h18M6 10V3.6a.6.6 0 0 1 .6-.6h10.8a.6.6 0 0 1 .6.6V10m3 10.4V14a4 4 0 0 0-4-4H7a4 4 0 0 0-4 4v6.4a.6.6 0 0 0 .6.6h16.8a.6.6 0 0 0 .6-.6Z" stroke="currentColor"/><path d="m17 13.01.01-.011" stroke="currentColor" stroke-linecap="round" stroke-linejoin="round"/></svg>
